!!!COM: Beethoven
!!!OTL: 24 Variationen uber Venni Amore von V. Righini
!!!Variation: Variation 2 b
**function	**harm	**kern	**kern
*	*	*clefF4	*clefF4
*	*	*k[f#c#]	*k[f#c#]
*M2/4	*M2/4	*M2/4	*M2/4
*D:	*D:	*D:	*D:
=41	=41	=41	=41
4D	V7	r	8A'L
.	.	8AA 8C# 8E	(32ALK
.	.	.	16e'JJ)
.	.	.	r
4D	V7d	r	8e'L
.	.	8GG 8BB 8C# 8E	(32eLK
.	.	.	16a'JJ)
.	.	.	r
=42	=42	=42	=42
4D	Ib	r	8a'L
.	.	8FF# 8AA 8D	(32aLK
.	.	.	16dd'JJ)
.	.	.	r
4D	I	r	8dd'L
.	.	8DD 8FF# 8AA	(32ddLK
.	.	.	16ff#'JJ)
.	.	.	r
=43	=43	=43	=43
4D	V	r	8ff#'L
.	.	8CC# 8EE 8AA	(32ff#LK
.	.	.	16gg'JJ)
.	.	.	r
4D	V7d	r	8gg'L
.	.	8GG 8AA	(32ggLK
.	.	.	16ccc#'JJ)
.	.	.	r
=44	=44	=44	=44
2D	Ib	r	8ccc#'L
.	.	8FF# 8AA	(32ccc#LK
.	.	.	16ddd'JJ)
.	.	.	r
.	.	r	8ddd'L
.	.	.	(32dddLK
.	.	.	16aa'JJ)
.	.	.	r
=45	=45	=45	=45
4D	V7b	r	8aa'L
.	.	8CC# 8GG 8AA	(32aaLK
.	.	.	16ee'JJ)
.	.	.	r
4D	V7d	r	8ee'L
.	.	8GG 8AA 8C#	(32eeLK
.	.	.	16a'JJ)
.	.	.	r
=46	=46	=46	=46
4D	Ib	r	8a'L
.	.	8FF# 8AA 8D	(32aLK
.	.	.	16dd'JJ)
.	.	.	r
4D	I	r	8dd'L
.	.	8D 8F#	(32ddLK
.	.	.	16d'JJ)
.	.	.	r
=47	=47	=47	=47
4D	Ic	r	8d'L
.	.	8D 8E	(32dLK
.	.	.	16a'JJ)
.	.	.	r
4D	V7	r	8a'L
.	.	8AA 8C# 8E	(32aLK
.	.	.	16A'JJ)
.	.	.	r
=48	=48	=48	=48
2T	I	r	8A'L
.	.	8D	(32ALK
.	.	.	16d'JJ)
.	.	.	r
.	.	8DD	r
.	.	r	.
*-	*-	*-	*-
